src/svg/financial-aid.svg

<svg xmlns="http://www.w3.org/2000/svg" viewBox="0 0 32 32" style="enable-background:new 0 0 32 32" xml:space="preserve"><path d="M16.6 25v1.8h-1.3V25c-1.4-.1-2.8-.7-3.8-1.7l1.3-1.7c.7.7 1.6 1.2 2.5 1.4v-2.5c-1.7-.4-3.5-1-3.5-3.2 0-1.6 1.3-3 3.5-3.2v-1.8h1.3V14c1.3.1 2.6.6 3.5 1.4l-1.3 1.7c-.6-.6-1.4-.9-2.3-1v2.3c2 .4 3.8 1.1 3.8 3.3.1 1.7-1.1 3.1-3.7 3.3zm-1.3-7v-2c-.8 0-1.3.5-1.3 1s.5.8 1.3 1zm2.6 3.9c0-.6-.6-.9-1.3-1.1v2.3c.9-.2 1.3-.7 1.3-1.2zm13.3-11H.7L15.9.7l15.3 10.2zM1.9 12.2h3.2v14.6H1.9V12.2zm29.3 15.9v3.2H.7v-3.2h30.5zm-4.5-15.9h3.2v14.6h-3.2V12.2zm-4.4 0h3.2v14.6h-3.2V12.2zm-15.9 0h3.2v14.6H6.4V12.2z"/></svg>

<?xml version="1.0" encoding="utf-8"?>
<!-- Generator: Adobe Illustrator 25.2.3, SVG Export Plug-In . SVG Version: 6.00 Build 0)  -->
<svg version="1.1" id="Layer_1" xmlns="http://www.w3.org/2000/svg" xmlns:xlink="http://www.w3.org/1999/xlink" x="0px" y="0px"
	 viewBox="0 0 32 32" style="enable-background:new 0 0 32 32;" xml:space="preserve">
<path d="M16.6,25v1.8h-1.3v-1.8c-1.4-0.1-2.8-0.7-3.8-1.7l1.3-1.7c0.7,0.7,1.6,1.2,2.5,1.4v-2.5c-1.7-0.4-3.5-1-3.5-3.2
	c0-1.6,1.3-3,3.5-3.2v-1.8h1.3V14c1.3,0.1,2.6,0.6,3.5,1.4l-1.3,1.7c-0.6-0.6-1.4-0.9-2.3-1v2.3c2,0.4,3.8,1.1,3.8,3.3
	C20.4,23.4,19.2,24.8,16.6,25z M15.3,18V16C14.5,16,14,16.5,14,17S14.5,17.8,15.3,18L15.3,18z M17.9,21.9c0-0.6-0.6-0.9-1.3-1.1v2.3
	C17.5,22.9,17.9,22.4,17.9,21.9L17.9,21.9z M31.2,10.9H0.7L15.9,0.7L31.2,10.9z M1.9,12.2h3.2v14.6H1.9V12.2z M31.2,28.1v3.2H0.7
	v-3.2H31.2z M26.7,12.2h3.2v14.6h-3.2V12.2z M22.3,12.2h3.2v14.6h-3.2V12.2z M6.4,12.2h3.2v14.6H6.4V12.2z"/>
</svg>
